X:99
T:No Title II. LIT.099	
M:6/8
Q:3/8=125
L:1/8
B:Wm. Litten MS, 1802
Z:Village Music Project 2017 Anne Wride
K:F
c | fga c2c | d2d c2 c | fga c2c | d2e f2c |
fga c2 c | d2d c2 c | a2a gec | d2e f2 |]

